X:1
T:Title
%%score ( 1 2 3 ) { ( 4 6 7 ) | ( 5 8 ) }
L:1/8
Q:1/4=100
M:4/4
K:F
V:1 treble nm="Grand Piano, Piano"
V:2 treble 
V:3 treble 
V:4 bass nm="Grand Piano, Piano"
V:6 bass 
V:7 bass 
V:5 bass 
V:8 bass 
V:1
 [CA]3 [CA] [Cc]2 [CA]2 | [DF]2 [EG]2 [FA]4 | [CA]3 [CA] [Cc]2 [CA]2 | [DF]2 [DG]2 [^CA]4 | %4
w: 1.~Come,~ ye~ thank ful~|peo ple,~ come,~|raise~ the~ song~ of~|harv est~ home;~|
 [DA]3 [DA] [DB]2 [DB]2 | G4 z4 |[M:2/4] [CA]2 [D=B]2 | [Cc]2 [DF]2 |[M:4/4] [CE]2 [=B,D]2 C4 | %9
w: all~ is~ safe ly~|ga|ere~ the~|win ter~|storms~ be gin.~|
 [CE]3 [CE] [CG]2 [CE]2 | [CF]2 [B,G]2 [A,A]4 | [CA]3 [CA] [Fc]2 [FA]2 | [FB]2 [_Ec]2 [Dd]4 | %13
w: God~ our~ Ma ker~|doth~ pro vide~|for~ our~ wants~ to~|be~ sup plied;~|
 d3 d [GB]2 [DG]2 | c4 z4 | [FB]2 [Fd]2 [Fc]2 F2 | [FA]2 [EG]2 F4 |] %17
w: come~ to~ God's~ own~|tem|raise~ the~ song~ of~|harv est~ home.~|
V:2
 x8 | x8 | x8 | x8 | x8 | C2 z G [CA]4 |[M:2/4] x4 | x4 |[M:4/4] x8 | x8 | x8 | x8 | x8 | %13
w: |||||* thered~ *||||||||
 D2 ^F2 z4 | C2 z c [FA]4 | x8 | x8 |] %17
w: |* ple,~ *|||
V:3
 x8 | x8 | x8 | x8 | x8 | z2 C2 z4 |[M:2/4] x4 | x4 |[M:4/4] x8 | x8 | x8 | x8 | x8 | x8 | %14
 z2 E2 z4 | x8 | x8 |] %17
V:4
 F,3 F, G,2 A,2 | A,2 C2 C4 | F,3 F, G,2 F,2 | A,2 B,2 E,4 | F,3 F, G,2 G,2 | E,2 E,2 F,4 | %6
[M:2/4] F,2 F,2 | G,2 A,2 |[M:4/4] G,4 z4 | G,3 G, E,2 G,2 | F,4 F,4 | F,3 F, A,2 C2 | B,4 B,4 | %13
 A,2[K:treble] D2 D2 B,2 | G,2 C2 C4 | B,2 B,2 C2 A,2 | C4 A,4 |] %17
V:5
 z4 E,2 F,2 | D,2 C,2 F,4 | z4 E,2 z2 | D,2 B,,2 A,,4 | D,3 D, G,,2 G,,2 | C,2 C,2 F,,4 | %6
[M:2/4] z2 D,2 | E,2 F,2 |[M:4/4] z4 C,4 | C,3 C, C,2 B,,2 | A,,2 z E, F,,4 | z4 F,2 _E,2 | %12
 D,2 z A, B,,4 | ^F,2 D,2 G,2 G,2 | E,2 C,2 F,4 | D,2 B,,2 A,,2 D,2 | C,2 z B, F,4 |] %17
V:6
 x8 | x8 | x8 | x8 | x8 | x8 |[M:2/4] x4 | x4 |[M:4/4] z2 z F, E,4 | x8 | x8 | x8 | x8 | %13
 x2[K:treble] x6 | x8 | x8 | x8 |] %17
V:7
 x8 | x8 | x8 | x8 | x8 | x8 |[M:2/4] x4 | x4 |[M:4/4] z2 G,,2 z4 | x8 | x8 | x8 | x8 | %13
 x2[K:treble] x6 | x8 | x8 | x8 |] %17
V:8
 x8 | x8 | x8 | x8 | x8 | x8 |[M:2/4] x4 | x4 |[M:4/4] x8 | x8 | z2 G,,2 z4 | x8 | z2 C,2 z4 | x8 | %14
 x8 | x8 | z2 C,2 z4 |] %17

